X:1
T:[ID 11-27e]
T:[ID 11-27e]
T:Bezeichnung standardisiert: Anglaise No. 5 Angle
T:Urheber unbekannt Datum in der hier transkribierten schriftlichen Quelle: vermutlich um 1800
C:Urheber unbekannt
C:Datum in der hier transkribierten schriftlichen Quelle: vermutlich um 1800
L:1/8
M:3/8
K:F
V:1 treble 
V:1
 cAF | FEF | GEC | C=B,C | Acf | cfa | gfe | f2 z :: ff/e/f | ff/e/f | g2 e | cde | ff/e/f | %13
 ff/e/f | gbe | f2 z :: c2 A | d2 B | g2 e | f2 a | c2 A | d2 B | ede | f2 z :| %24

